public/images/icon-instagram.svg

<?xml version="1.0" ?><!DOCTYPE svg  PUBLIC '-//W3C//DTD SVG 1.1//EN'  'http://www.w3.org/Graphics/SVG/1.1/DTD/svg11.dtd'><svg enable-background="new 0 0 128 128" id="Social_Icons" version="1.1" viewBox="0 0 128 128" xml:space="preserve" xmlns="http://www.w3.org/2000/svg" xmlns:xlink="http://www.w3.org/1999/xlink"><g id="_x37__stroke"><g id="Instagram_1_"><rect clip-rule="evenodd" fill="none" fill-rule="evenodd" height="128" width="128"/><radialGradient cx="19.1111" cy="128.4444" gradientUnits="userSpaceOnUse" id="Instagram_2_" r="163.5519"><stop offset="0" style="stop-color:#FFB140"/><stop offset="0.2559" style="stop-color:#FF5445"/><stop offset="0.599" style="stop-color:#FC2B82"/><stop offset="1" style="stop-color:#8E40B7"/></radialGradient><path clip-rule="evenodd" d="M105.843,29.837    c0,4.242-3.439,7.68-7.68,7.68c-4.241,0-7.68-3.438-7.68-7.68c0-4.242,3.439-7.68,7.68-7.68    C102.405,22.157,105.843,25.595,105.843,29.837z M64,85.333c-11.782,0-21.333-9.551-21.333-21.333    c0-11.782,9.551-21.333,21.333-21.333c11.782,0,21.333,9.551,21.333,21.333C85.333,75.782,75.782,85.333,64,85.333z M64,31.135    c-18.151,0-32.865,14.714-32.865,32.865c0,18.151,14.714,32.865,32.865,32.865c18.151,0,32.865-14.714,32.865-32.865    C96.865,45.849,82.151,31.135,64,31.135z M64,11.532c17.089,0,19.113,0.065,25.861,0.373c6.24,0.285,9.629,1.327,11.884,2.204    c2.987,1.161,5.119,2.548,7.359,4.788c2.24,2.239,3.627,4.371,4.788,7.359c0.876,2.255,1.919,5.644,2.204,11.884    c0.308,6.749,0.373,8.773,0.373,25.862c0,17.089-0.065,19.113-0.373,25.861c-0.285,6.24-1.327,9.629-2.204,11.884    c-1.161,2.987-2.548,5.119-4.788,7.359c-2.239,2.24-4.371,3.627-7.359,4.788c-2.255,0.876-5.644,1.919-11.884,2.204    c-6.748,0.308-8.772,0.373-25.861,0.373c-17.09,0-19.114-0.065-25.862-0.373c-6.24-0.285-9.629-1.327-11.884-2.204    c-2.987-1.161-5.119-2.548-7.359-4.788c-2.239-2.239-3.627-4.371-4.788-7.359c-0.876-2.255-1.919-5.644-2.204-11.884    c-0.308-6.749-0.373-8.773-0.373-25.861c0-17.089,0.065-19.113,0.373-25.862c0.285-6.24,1.327-9.629,2.204-11.884    c1.161-2.987,2.548-5.119,4.788-7.359c2.239-2.24,4.371-3.627,7.359-4.788c2.255-0.876,5.644-1.919,11.884-2.204    C44.887,11.597,46.911,11.532,64,11.532z M64,0C46.619,0,44.439,0.074,37.613,0.385C30.801,0.696,26.148,1.778,22.078,3.36    c-4.209,1.635-7.778,3.824-11.336,7.382C7.184,14.3,4.995,17.869,3.36,22.078c-1.582,4.071-2.664,8.723-2.975,15.535    C0.074,44.439,0,46.619,0,64c0,17.381,0.074,19.561,0.385,26.387c0.311,6.812,1.393,11.464,2.975,15.535    c1.635,4.209,3.824,7.778,7.382,11.336c3.558,3.558,7.127,5.746,11.336,7.382c4.071,1.582,8.723,2.664,15.535,2.975    C44.439,127.926,46.619,128,64,128c17.381,0,19.561-0.074,26.387-0.385c6.812-0.311,11.464-1.393,15.535-2.975    c4.209-1.636,7.778-3.824,11.336-7.382c3.558-3.558,5.746-7.127,7.382-11.336c1.582-4.071,2.664-8.723,2.975-15.535    C127.926,83.561,128,81.381,128,64c0-17.381-0.074-19.561-0.385-26.387c-0.311-6.812-1.393-11.464-2.975-15.535    c-1.636-4.209-3.824-7.778-7.382-11.336c-3.558-3.558-7.127-5.746-11.336-7.382c-4.071-1.582-8.723-2.664-15.535-2.975    C83.561,0.074,81.381,0,64,0z" fill="url(#Instagram_2_)" fill-rule="evenodd" id="Instagram"/></g></g></svg>

<svg width="128" height="128" viewBox="0 0 128 128" fill="none" xmlns="http://www.w3.org/2000/svg">
<path fill-rule="evenodd" clip-rule="evenodd" d="M105.843 29.837C105.843 34.079 102.404 37.517 98.163 37.517C93.922 37.517 90.483 34.079 90.483 29.837C90.483 25.595 93.922 22.157 98.163 22.157C102.405 22.157 105.843 25.595 105.843 29.837ZM64 85.333C52.218 85.333 42.667 75.782 42.667 64C42.667 52.218 52.218 42.667 64 42.667C75.782 42.667 85.333 52.218 85.333 64C85.333 75.782 75.782 85.333 64 85.333ZM64 31.135C45.849 31.135 31.135 45.849 31.135 64C31.135 82.151 45.849 96.865 64 96.865C82.151 96.865 96.865 82.151 96.865 64C96.865 45.849 82.151 31.135 64 31.135ZM64 11.532C81.089 11.532 83.113 11.597 89.861 11.905C96.101 12.19 99.49 13.232 101.745 14.109C104.732 15.27 106.864 16.657 109.104 18.897C111.344 21.136 112.731 23.268 113.892 26.256C114.768 28.511 115.811 31.9 116.096 38.14C116.404 44.889 116.469 46.913 116.469 64.002C116.469 81.091 116.404 83.115 116.096 89.863C115.811 96.103 114.769 99.492 113.892 101.747C112.731 104.734 111.344 106.866 109.104 109.106C106.865 111.346 104.733 112.733 101.745 113.894C99.49 114.77 96.101 115.813 89.861 116.098C83.113 116.406 81.089 116.471 64 116.471C46.91 116.471 44.886 116.406 38.138 116.098C31.898 115.813 28.509 114.771 26.254 113.894C23.267 112.733 21.135 111.346 18.895 109.106C16.656 106.867 15.268 104.735 14.107 101.747C13.231 99.492 12.188 96.103 11.903 89.863C11.595 83.114 11.53 81.09 11.53 64.002C11.53 46.913 11.595 44.889 11.903 38.14C12.188 31.9 13.23 28.511 14.107 26.256C15.268 23.269 16.655 21.137 18.895 18.897C21.134 16.657 23.266 15.27 26.254 14.109C28.509 13.233 31.898 12.19 38.138 11.905C44.887 11.597 46.911 11.532 64 11.532ZM64 0C46.619 0 44.439 0.074 37.613 0.385C30.801 0.696 26.148 1.778 22.078 3.36C17.869 4.995 14.3 7.184 10.742 10.742C7.184 14.3 4.995 17.869 3.36 22.078C1.778 26.149 0.696 30.801 0.385 37.613C0.074 44.439 0 46.619 0 64C0 81.381 0.074 83.561 0.385 90.387C0.696 97.199 1.778 101.851 3.36 105.922C4.995 110.131 7.184 113.7 10.742 117.258C14.3 120.816 17.869 123.004 22.078 124.64C26.149 126.222 30.801 127.304 37.613 127.615C44.439 127.926 46.619 128 64 128C81.381 128 83.561 127.926 90.387 127.615C97.199 127.304 101.851 126.222 105.922 124.64C110.131 123.004 113.7 120.816 117.258 117.258C120.816 113.7 123.004 110.131 124.64 105.922C126.222 101.851 127.304 97.199 127.615 90.387C127.926 83.561 128 81.381 128 64C128 46.619 127.926 44.439 127.615 37.613C127.304 30.801 126.222 26.149 124.64 22.078C123.004 17.869 120.816 14.3 117.258 10.742C113.7 7.184 110.131 4.996 105.922 3.36C101.851 1.778 97.199 0.696 90.387 0.385C83.561 0.074 81.381 0 64 0Z" fill="url(#paint0_radial)"/>
<defs>
<radialGradient id="paint0_radial" cx="0" cy="0" r="1" gradientUnits="userSpaceOnUse" gradientTransform="translate(19.1111 128.444) scale(163.552)">
<stop stop-color="#FFB140"/>
<stop offset="0.2559" stop-color="#FF5445"/>
<stop offset="0.599" stop-color="#FC2B82"/>
<stop offset="1" stop-color="#8E40B7"/>
</radialGradient>
</defs>
</svg>
